Obsidian-SemiLight/actions/22s/view-time-schedule-child-insert.svg

<svg viewBox="0 0 22 22" xmlns="http://www.w3.org/2000/svg"><path d="m3 3v10h1v-6h14v2h1v-6h-2v2.0996094h-2v-2.0996094h-8v2.0996094h-2v-2.0996094zm8 8v8h8v-8h-1v1h-1v-1h-4v1h-1v-1zm1 2h6v5h-6zm-7 1v2h-2v1h2v2h1v-2h2v-1h-2v-2zm8 0v1 1 1h1v-1h2v1h1v-3h-1v1h-2v-1z" fill="#4d4d4d"/></svg>

<svg xmlns="http://www.w3.org/2000/svg" viewBox="0 0 22 22">
  <defs id="defs3051">
    <style type="text/css" id="current-color-scheme">
      .ColorScheme-Text {
        color:#4d4d4d;
      }
      </style>
  </defs>
 <path 
    style="fill:currentColor;fill-opacity:1;stroke:none" 
    d="M 3 3 L 3 13 L 4 13 L 4 7 L 18 7 L 18 9 L 19 9 L 19 3 L 17 3 L 17 5.0996094 L 15 5.0996094 L 15 3 L 7 3 L 7 5.0996094 L 5 5.0996094 L 5 3 L 3 3 z M 11 11 L 11 19 L 19 19 L 19 11 L 18 11 L 18 12 L 17 12 L 17 11 L 13 11 L 13 12 L 12 12 L 12 11 L 11 11 z M 12 13 L 18 13 L 18 18 L 12 18 L 12 13 z M 5 14 L 5 16 L 3 16 L 3 17 L 5 17 L 5 19 L 6 19 L 6 17 L 8 17 L 8 16 L 6 16 L 6 14 L 5 14 z M 13 14 L 13 15 L 13 16 L 13 17 L 14 17 L 14 16 L 16 16 L 16 17 L 17 17 L 17 14 L 16 14 L 16 15 L 14 15 L 14 14 L 13 14 z "
	class="ColorScheme-Text"
    />  
</svg>
